src/Pure/16/symbolic/actions/builder-profiler-symbolic.svg

<?xml version="1.0" encoding="UTF-8" standalone="no"?>
<svg
   width="16px"
   height="16px"
   version="1.1"
   viewBox="0 0 16 16"
   id="svg1"
   sodipodi:docname="builder-profiler-symbolic.svg"
   inkscape:version="1.4.2 (ebf0e940d0, 2025-05-08)"
   xmlns:inkscape="http://www.inkscape.org/namespaces/inkscape"
   xmlns:sodipodi="http://sodipodi.sourceforge.net/DTD/sodipodi-0.dtd"
   xmlns="http://www.w3.org/2000/svg"
   xmlns:svg="http://www.w3.org/2000/svg">
  <defs
   id="defs1">
   <style id="current-color-scheme" type="text/css">
    .ColorScheme-Text { color:#363636; }
   </style>
  </defs>
  <sodipodi:namedview
     id="namedview1"
     pagecolor="#ffffff"
     bordercolor="#000000"
     borderopacity="0.25"
     inkscape:showpageshadow="2"
     inkscape:pageopacity="0.0"
     inkscape:pagecheckerboard="0"
     inkscape:deskcolor="#d1d1d1"
     inkscape:zoom="49.6875"
     inkscape:cx="8"
     inkscape:cy="8"
     inkscape:window-width="1920"
     inkscape:window-height="1010"
     inkscape:window-x="0"
     inkscape:window-y="0"
     inkscape:window-maximized="1"
     inkscape:current-layer="svg1" />
  <path
     id="path1"
     style="fill:currentColor"
     class="ColorScheme-Text"
     d="M 8 0 L 8 1 L 8 4 L 9 4 L 9 1.0742188 A 7 7 0 0 1 15 8 A 7 7 0 0 1 8 15 A 7 7 0 0 1 1 8 A 7 7 0 0 1 2.4902344 3.703125 L 1.8203125 2.9375 A 8 8 0 0 0 0 8 A 8 8 0 0 0 8 16 A 8 8 0 0 0 16 8 A 8 8 0 0 0 8 0 z M 4.8183594 4.1113281 L 4.1113281 4.8183594 L 6.28125 6.9882812 A 2 2 0 0 0 6 8 A 2 2 0 0 0 8 10 A 2 2 0 0 0 10 8 A 2 2 0 0 0 8 6 A 2 2 0 0 0 6.9882812 6.28125 L 4.8183594 4.1113281 z M 8 7 A 1 1 0 0 1 9 8 A 1 1 0 0 1 8 9 A 1 1 0 0 1 7 8 A 1 1 0 0 1 7.2929688 7.2929688 A 1 1 0 0 1 8 7 z " />
</svg>

<svg width="16px" height="16px" version="1.1" viewBox="0 0 16 16" xmlns="http://www.w3.org/2000/svg">
 <path d="m8 0v1 3h1v-2.9258a7 7 0 0 1 6 6.9258 7 7 0 0 1-7 7 7 7 0 0 1-7-7 7 7 0 0 1 1.4902-4.2969l-0.66992-0.76562a8 8 0 0 0-1.8203 5.0625 8 8 0 0 0 8 8 8 8 0 0 0 8-8 8 8 0 0 0-8-8zm-3.1816 4.1113-0.70703 0.70703 2.1699 2.1699a2 2 0 0 0-0.28125 1.0117 2 2 0 0 0 2 2 2 2 0 0 0 2-2 2 2 0 0 0-2-2 2 2 0 0 0-1.0117 0.28125l-2.1699-2.1699zm3.1816 2.8887a1 1 0 0 1 1 1 1 1 0 0 1-1 1 1 1 0 0 1-1-1 1 1 0 0 1 0.29297-0.70703 1 1 0 0 1 0.70703-0.29297z" fill="#363636"/>
</svg>
